!! 00000] TT[00
!!!OTL: Banjiu Xiaodiao
!!!ARE: Asia, China,Jiangxi, Anyuan
!! Ethnic Group: Han
!! Zhongguo Minge Xuan, S. 180
!!!SCT: C1158
!!!YEM: Copyright 1995, estate of Helmut Schaffrath.
**kern
*ICvox
*Ivox
*M2/4
*k[f#c#]
*D:
{8dd
16dd
16b
16a
16b
16ee
16dd
=1
8b
16b
16a
4b}
=2
{8dd
16dd
16b
16a
16b
16ee
16dd
=3
8b
16b
16a
4b}
=4
{8dd
4dd
16dd
16ee
=5
8ff#
8ff#
4ee}
=6
{16b
16b
16b
16ee
16dd
16ee
16b
16a
=7
8.f#
16e
16f#
16e
16f#
16b
=8
2a}
=9
{16dd
16dd
16dd
16b
16a
16b
16ee
16dd
=10
8b
16b
16a
4b}
=11
{16dd
16dd
16dd
16b
16a
16b
16ee
16dd
=12
8b
16b
16a
4b}
=13
{8dd
4dd
16dd
16ee
=14
8ff#
8ff#
4ee}
=15
{8dd
8ee
8ff#
8aa
=16
8f#
8a
8f#
8a}
=17
{16dd
16dd
16dd
16b
16a
16b
16ee
16dd
=18
8b
16b
16a
4b}
=19
{16dd
16dd
16dd
16b
16a
16b
16ee
16dd
=20
8b
16b
16a
4b}
=21
{8dd
4dd
16dd
16ee
=22
8ff#
8ff#
4ee}
=23
{16b
16b
16b
16ee
16dd
16ee
16b
16a
=24
8f#
8e
16f#
16e
16f#
16b
=25
2a}
==
!!!AGN: Tanzlied, Xiaodiao
!! Nachspiel und Glissandi fehlen
!!!ONB: ESAC (Essen Associative Code) Database: CHINA_055
!!!AMT: simple duple
!!!AIN: vox
!!!EED: Helmut Schaffrath
!!!EEV: 1.0
*-
